MonoIcons/scalable/status/weather-snow-symbolic.svg

<?xml version="1.0" encoding="UTF-8"?>
<svg height="16px" viewBox="0 0 16 16" width="16px" xmlns="http://www.w3.org/2000/svg">
    <path d="m 7.5 0.5 c -0.277344 0 -0.5 0.222656 -0.5 0.5 v 1.53125 l -1.253906 -0.714844 c -0.238282 -0.136718 -0.542969 -0.054687 -0.679688 0.183594 c -0.136718 0.242188 -0.054687 0.546875 0.183594 0.683594 l 1.75 1 v 3.449218 l -2.988281 -1.726562 l 0.007812 -2.011719 c 0 -0.273437 -0.222656 -0.5 -0.496093 -0.5 c -0.277344 0 -0.5 0.222657 -0.5 0.496094 l -0.007813 1.441406 l -1.328125 -0.765625 c -0.113281 -0.066406 -0.25 -0.085937 -0.378906 -0.050781 s -0.238282 0.121094 -0.304688 0.234375 s -0.085937 0.25 -0.050781 0.378906 s 0.121094 0.238282 0.234375 0.304688 l 1.328125 0.765625 l -1.246094 0.726562 c -0.238281 0.136719 -0.320312 0.445313 -0.179687 0.683594 c 0.136718 0.238281 0.441406 0.320313 0.683594 0.179687 l 1.738281 -1.015624 l 2.988281 1.726562 l -2.988281 1.726562 l -1.738281 -1.015624 c -0.242188 -0.140626 -0.546876 -0.058594 -0.683594 0.183593 c -0.140625 0.238281 -0.058594 0.542969 0.179687 0.679688 l 1.246094 0.726562 l -1.328125 0.765625 c -0.113281 0.066406 -0.199219 0.175782 -0.234375 0.304688 s -0.015625 0.265625 0.050781 0.378906 h 0.003906 c 0.136719 0.238281 0.441407 0.320312 0.679688 0.183594 l 1.328125 -0.765625 l 0.007813 1.441406 c 0 0.273437 0.222656 0.5 0.5 0.496094 c 0.273437 0 0.496093 -0.222657 0.496093 -0.5 l -0.007812 -2.011719 l 2.988281 -1.726562 v 3.5 l -1.746094 0.988281 c -0.117187 0.0625 -0.199218 0.171875 -0.234375 0.300781 c -0.039062 0.125 -0.019531 0.261719 0.046875 0.378906 c 0.0625 0.117188 0.171875 0.199219 0.300782 0.234375 c 0.125 0.039063 0.261718 0.019531 0.378906 -0.042969 l 1.253906 -0.710937 v 1.484375 c 0 0.277344 0.222656 0.5 0.5 0.5 s 0.5 -0.222656 0.5 -0.5 v -1.484375 l 1.253906 0.710937 c 0.117188 0.0625 0.253906 0.082032 0.378906 0.042969 c 0.128907 -0.035156 0.238282 -0.117187 0.304688 -0.234375 c 0.0625 -0.117187 0.082031 -0.253906 0.042969 -0.378906 c -0.035157 -0.128906 -0.117188 -0.238281 -0.234375 -0.300781 l -1.746094 -0.988281 v -3.5 l 3.03125 1.75 l -0.015625 2.007812 c -0.003906 0.273438 0.21875 0.5 0.492187 0.5 c 0.132813 0.003906 0.261719 -0.046875 0.355469 -0.140625 s 0.148438 -0.21875 0.152344 -0.351563 l 0.011719 -1.441406 l 1.285156 0.742188 c 0.238281 0.136718 0.542969 0.054687 0.683594 -0.183594 c 0.136718 -0.238281 0.054687 -0.546875 -0.183594 -0.683594 l -1.285156 -0.742187 l 1.242187 -0.730469 c 0.113281 -0.066406 0.195313 -0.175781 0.226563 -0.304688 c 0.035156 -0.128906 0.015625 -0.265624 -0.050782 -0.382812 c -0.140624 -0.234375 -0.449218 -0.3125 -0.683593 -0.175781 l -1.730469 1.019531 l -3.03125 -1.75 l 3.03125 -1.75 l 1.730469 1.019531 c 0.234375 0.140625 0.542969 0.058594 0.683593 -0.175781 c 0.066407 -0.117188 0.085938 -0.253906 0.050782 -0.382812 c -0.03125 -0.128907 -0.113282 -0.238282 -0.226563 -0.304688 l -1.242187 -0.730469 l 1.285156 -0.742187 c 0.238281 -0.136719 0.320312 -0.445313 0.183594 -0.683594 c -0.140625 -0.238281 -0.445313 -0.320312 -0.683594 -0.183594 l -1.285156 0.742188 l -0.011719 -1.441406 c -0.003906 -0.132813 -0.058594 -0.257813 -0.152344 -0.351563 s -0.222656 -0.144531 -0.355469 -0.140625 c -0.277343 0 -0.496093 0.226562 -0.492187 0.503906 l 0.015625 2.003906 l -3.03125 1.75 v -3.449218 l 1.75 -1 c 0.238281 -0.136719 0.320312 -0.441406 0.183594 -0.683594 c -0.136719 -0.238281 -0.441406 -0.320312 -0.679688 -0.183594 l -1.253906 0.714844 v -1.53125 c 0 -0.277344 -0.222656 -0.5 -0.5 -0.5 z m 0 0" fill="#2e3436"/>
</svg>

<svg width="16" height="16" viewBox="0 0 16 16" fill="none" xmlns="http://www.w3.org/2000/svg">
<path d="M7.50013 0.5C7.22279 0.5 7.00013 0.722656 7.00013 1V2.53125L5.74622 1.81641C5.50794 1.67969 5.20325 1.76172 5.06654 2C4.92982 2.24219 5.01185 2.54688 5.25013 2.68359L7.00013 3.68359V7.13281L4.01185 5.40625L4.01966 3.39453C4.01966 3.12109 3.797 2.89453 3.52357 2.89453C3.24622 2.89453 3.02357 3.11719 3.02357 3.39063L3.01575 4.83203L1.68763 4.06641C1.57435 4 1.43763 3.98047 1.30872 4.01563C1.17982 4.05078 1.07044 4.13672 1.00404 4.25C0.937629 4.36328 0.918098 4.5 0.953254 4.62891C0.98841 4.75781 1.07435 4.86719 1.18763 4.93359L2.51575 5.69922L1.26966 6.42578C1.03138 6.5625 0.949348 6.87109 1.08997 7.10938C1.22669 7.34766 1.53138 7.42969 1.77357 7.28906L3.51185 6.27344L6.50013 8L3.51185 9.72656L1.77357 8.71094C1.53138 8.57031 1.22669 8.65235 1.08997 8.89453C0.949348 9.13281 1.03138 9.4375 1.26966 9.57422L2.51575 10.3008L1.18763 11.0664C1.07435 11.1328 0.98841 11.2422 0.953254 11.3711C0.918098 11.5 0.937629 11.6367 1.00404 11.75H1.00794C1.14466 11.9883 1.44935 12.0703 1.68763 11.9336L3.01575 11.168L3.02357 12.6094C3.02357 12.8828 3.24622 13.1094 3.52357 13.1055C3.797 13.1055 4.01966 12.8828 4.01966 12.6055L4.01185 10.5938L7.00013 8.86719V12.3672L5.25404 13.3555C5.13685 13.418 5.05482 13.5273 5.01966 13.6563C4.9806 13.7813 5.00013 13.918 5.06654 14.0352C5.12904 14.1523 5.23841 14.2344 5.36732 14.2695C5.49232 14.3086 5.62904 14.2891 5.74622 14.2266L7.00013 13.5156V15C7.00013 15.2773 7.22279 15.5 7.50013 15.5C7.77747 15.5 8.00013 15.2773 8.00013 15V13.5156L9.25404 14.2266C9.37122 14.2891 9.50794 14.3086 9.63294 14.2695C9.76185 14.2344 9.87122 14.1523 9.93763 14.0352C10.0001 13.918 10.0197 13.7813 9.9806 13.6563C9.94544 13.5273 9.86341 13.418 9.74622 13.3555L8.00013 12.3672V8.86719L11.0314 10.6172L11.0158 12.625C11.0118 12.8984 11.2345 13.125 11.5079 13.125C11.6408 13.1289 11.7697 13.0781 11.8634 12.9844C11.9572 12.8906 12.0118 12.7656 12.0158 12.6328L12.0275 11.1914L13.3126 11.9336C13.5509 12.0703 13.8556 11.9883 13.9962 11.75C14.1329 11.5117 14.0509 11.2031 13.8126 11.0664L12.5275 10.3242L13.7697 9.59375C13.8829 9.52735 13.965 9.41797 13.9962 9.28906C14.0314 9.16016 14.0118 9.02344 13.9454 8.90625C13.8048 8.67188 13.4962 8.59375 13.2618 8.73047L11.5314 9.75L8.50013 8L11.5314 6.25L13.2618 7.26953C13.4962 7.41016 13.8048 7.32813 13.9454 7.09375C14.0118 6.97656 14.0314 6.83984 13.9962 6.71094C13.965 6.58203 13.8829 6.47266 13.7697 6.40625L12.5275 5.67578L13.8126 4.93359C14.0509 4.79688 14.1329 4.48828 13.9962 4.25C13.8556 4.01172 13.5509 3.92969 13.3126 4.06641L12.0275 4.80859L12.0158 3.36719C12.0118 3.23438 11.9572 3.10938 11.8634 3.01563C11.7697 2.92188 11.6408 2.87109 11.5079 2.875C11.2306 2.875 11.0118 3.10156 11.0158 3.37891L11.0314 5.38281L8.00013 7.13281V3.68359L9.75013 2.68359C9.98841 2.54688 10.0704 2.24219 9.93372 2C9.797 1.76172 9.49232 1.67969 9.25404 1.81641L8.00013 2.53125V1C8.00013 0.722656 7.77747 0.5 7.50013 0.5V0.5Z" fill="#2E3436"/>
</svg>
